X:381
M:C|
L:1/8
K:A Minor
e|^cAeA aAeA|^cAeA cAAe|^cAeA aAe^f|gedc BGGB|^cAeA aAeA|
^cAeA cAAc|d2 Bd c2Ac|Bgdg BGG||
aeed|(3cBA eA caad|(3cbA eA agef|gdd=c BGGB| (3cBA ea aeed|(3cBA eA cAAB|=c2 dc
eaed|cAeA cAAc|dfed {cd}c2 Ac|Bgdg BGG||

